Sources/FrostedUI/Resources/Icons.xcassets/thumbUp20.imageset/thumb-up-20.svg

<svg width="20" height="20" viewBox="0 0 20 20" fill="none" xmlns="http://www.w3.org/2000/svg" data-fui-icon="true">
  <path
    d="M9.67578 1.54199C11.1563 1.54221 12.2962 2.8634 12.0674 4.33105L11.7227 6.54199H15.2158C17.2054 6.54221 18.728 8.31434 18.4287 10.2812L17.7314 14.8643C17.4897 16.4518 16.1244 17.6248 14.5186 17.625H3.125C2.25083 17.6248 1.54219 16.9162 1.54199 16.042V9.79199C1.54199 8.91763 2.25071 8.20916 3.125 8.20898H5.27539L8.26758 2.40039L9.60059 3.08691L6.375 9.34863V16.125H14.5186C15.3831 16.1248 16.1188 15.4934 16.249 14.6387L16.9463 10.0557C17.1074 8.99665 16.2871 8.04221 15.2158 8.04199H10.8467C10.6279 8.04188 10.4197 7.94538 10.2773 7.7793C10.1351 7.61304 10.0729 7.39294 10.1064 7.17676L10.8467 7.29199V7.29102L10.1064 7.17676L10.5859 4.09961C10.672 3.54637 10.2405 3.04221 9.67578 3.04199C9.6437 3.04213 9.61529 3.06052 9.60156 3.08691L8.26758 2.40039C8.53946 1.87239 9.08411 1.54213 9.67578 1.54199ZM3.125 9.70898C3.07912 9.70916 3.04199 9.74607 3.04199 9.79199V16.042C3.04219 16.0877 3.07924 16.1248 3.125 16.125H4.875V9.70898H3.125Z"
    fill="currentColor"
  />
</svg>

<svg xmlns="http://www.w3.org/2000/svg" width="20" height="20" fill="none" data-fui-icon="true" viewBox="0 0 20 20"><path fill="currentColor" d="M9.676 1.542a2.42 2.42 0 0 1 2.391 2.789l-.344 2.211h3.493a3.25 3.25 0 0 1 3.213 3.74l-.698 4.582a3.25 3.25 0 0 1-3.212 2.761H3.125a1.583 1.583 0 0 1-1.583-1.583v-6.25c0-.874.709-1.583 1.583-1.583h2.15L8.268 2.4l1.333.687-3.226 6.262v6.776h8.144c.864 0 1.6-.632 1.73-1.486l.697-4.583a1.75 1.75 0 0 0-1.73-2.014h-4.37a.752.752 0 0 1-.74-.865l.74.115v-.001l-.74-.114.48-3.077a.92.92 0 0 0-.91-1.058.08.08 0 0 0-.074.045L8.268 2.4a1.59 1.59 0 0 1 1.408-.858M3.125 9.709a.083.083 0 0 0-.083.083v6.25c0 .046.037.083.083.083h1.75V9.709z"/></svg>
